!!!OTL: Der Spielmannssohn Es hat ein Reiter ein Toechterlein,
!!!ARE: Europa, Mitteleuropa, Deutschland / France, Lothringen
!!!YOR: 3, S. 178
!!    1933 gedruckt in Heidelberg
!!!SCT: Q1062G
!!!YEM: Copyright 1995, estate of Helmut Schaffrath.
**kern
*ICvox
*Ivox
*M6/8
*k[b-]
*F:
{8f
=1
4a
8g
8a
8a
8g
=2
4a
8b-
4cc}
{8cc
=3
8dd
8dd
8cc
8dd
8ff
16ff
16ee
=4
4.dd
4cc}
{8cc
=5
8.dd
16dd
16dd
16ee
8ff
8ee
8dd
=6
8cc
8dd
8cc
4a}
{8cc
=7
8.dd
16dd
16dd
16ee
8ff
8ee
8dd
=8
8cc
8dd
8cc
4a}
{8f
=9
8.g
16cc
8cc
8cc
8b-
8a
=10
4.g
4f}
==
!!!AGN: Legenden - Lied
!! Melodievergleich zu Q0062, anderes Lied "Maler der Blumen" .
!!!ONB: ESAC (Essen Associative Code) Database: BALLADE
!!!AMT: compound duple
!!!AIN: vox
!!!EED: Helmut Schaffrath
!!!EEV: 1.0
*-
